!! 00015] TT[TB
!! Zh. Ch. 1-4499, 600832), J 3794)
!!!OTL: Huang shan yangge
!!!ARE: Asia, China,ÿAnhui
!! Ethnic Group: Han
!! MM,
!!!SCT: C0683
!!!YEM: Copyright 1995, estate of Helmut Schaffrath.
**kern
*ICvox
*Ivox
!! Mixed meters:  2/4; 3/4
*M3/4
*k[f#c#g#]
*A:
{8cc#
8b
8cc#
8b
=1
8cc#
8b
8b
8f#
=2
[2e
=3
2e]}
=4
{8ff#
8a
8e
8f#
=5
4a
8f#
8r}
=6
{8a
8b
8ee
[8cc#
=7
2cc#]}
=8
{8ff#
8ee
8cc#
8b
=9
16cc#
8.a
8f#
8r}
=10
{8b
8cc#
16ee
[8.b
4b]
=11
*M2/4
8cc#
8b
8a
8f#
=12
8f#
8a
16f#
[8.e
=13
4.e]
8r}
=14
{8f#
8f#
8a
8b
=15
8cc#
8b
8b
8a
=16
2b}
=17
{8cc#
8b
8b
8f#
=18
4.a
8b
=19
4.e
8f#}
=20
{8a
8b
8a
8f#
=21
2f#}
=22
{8cc#
[8b
4b_
=23
4b]
16b
16a
[8f#
=24
2f#]}
=25
{8a
8b
8cc#
16ee
16cc#
=26
8b
16cc#
16b
8.a
16f#}
=27
{8b
8a
=28
8f#
4e
[8a
=29
8a]
8f#
8a
8b}
=30
*M3/4
{8cc#
8ee
8cc#
8b
8cc#
16ee
16cc#
=31
*M2/4
8.b
16cc#
16f#
16a
16b
16cc#
=32
16b
16a
16f#
16e
4f#}
=33
{8f#
16a
16b
8e
8f#
=34
4a
8f#
8r}
=35
{4b
16a
16b
8f#
=36
16a
16b
8f#
[4e
=37
4e]
4r}
==
!!!AGN: Shange, Tiange. Nongtian laodong shi chang. Huangshan fengguang
!! Kopie der Noten.
!!    Wenig Verzierungen.
!!!ONB: ESAC (Essen Associative Code) Database: CHINA
!!!AMT: irregular
!!!AIN: vox
!!!EED: Helmut Schaffrath
!!!EEV: 1.0
*-
!!!ONB: Tied note syntax fixed by Craig Sapp, 2004/05/03/
